X: 16295
T: Grinder, The
R: slip jig
M: 9/8
K: Amixolydian
|:AAA A2 B G2 B|AAA A2 B d2 e|AAA A2 B G2 B|gee edB d2 e:|
|:eee g2 e f2 d|eee g2 e f2 d|eee g2 e a2 a|age edB d2 e:|

